X:153
T:The Longford Tinker                                                                               
M:4/4                                                                                               
L:1/8                                                                                               
K:Bm                                                                                                
dBBA B2Bc|dBB2 f2ef|dBBA B2dB|ABde f2ef|                                                            
dBB2 fBB2|dBB2 f2fg|aAAF ABAF|ABdef2ef||                                                            
d2fd efge|defa g2fe|d2fd efge|defa g2fe|                                                            
d2fd efge|defa g2ga|bgaf gfed|faafgfed||                                                            
faa2 eaa2|faaf gfed|gbb2 gbb2|gbbf gfed|                                                            
faa2 eff2|faaf g2ga|bgaf gfed|faaf gfed||
